X:20
T:Brothers in York
O:england
C:Welch MS
M:6/8
L:1/8
K:G
EGE G2A|B2e dBG|A2B c2A|B2G FED|
EGE G2A|B2e dBG|A2B c2A|BGE E3:|
|:e3fge|fab fed|e3fge|fed e3|
e2f g2e|fab fed|e2B c2A|B G E E3:|

